X: 1153
T: Delvin Side.   a Strathspey.
%R: strathspey
N: This is version 2, for ABC software that understands trailing grace notes.
N: (It's not obvious why this was done in bar 1, while in bar 4 the final 16th-notes are written normally.)
B: Niel Gow & Sons "Complete Repository" v.1 p/15 #3
Z: 2021 John Chambers <jc:trillian.mit.edu>
M: C
L: 1/16
K: Edor
% - - - - - - - - - -
% Voice 1 formatted for proofreading.
V: 1 staves=2
|:\
E3e dBAB d2E2 (B4{AB}) | d3E dBAB dD3A3F | E3e dBAB d2E2E3g | (gf).e.d (fe).d.c d2D2 (TA2GF) :|
d3EB3E d3E BAGF | d3EB3E d2D2 BAGF | d3EB3E d2E2E2g2 | (gf).e.d (fe).d.c d3DA3F ||
d3EB3E d3E BAGF | d3EB3E d3D BAGF | d3EB3E d2E2E2g2 | .f.a.g.f .e.g.f.e d3D BAGF |]
% - - - - - - - - - -
% Voice 2 preserves the book's staff layout.
V: 2 clef=bass middle=d
|:\
e4e4 e4e4 | e4e4 d4d4 | e4d4 e4e4 | g4a4 d4d4 :| !f!\
[e4E4][e4E4] [e4E4][e4E4] |
[e4E4][e4E4] [d4D4][d4D4] |\
[e4E4][e4E4] [e4E4][e4E4] | [g4G4][a4A4] [d4D4][d4D4] ||\
[e4E4][e4E4] [e4E4][e4E4] | [e4E4][e4E4] [d4D4][d4D4] |\
[e4E4][e4E4] [e4E4][e4E4] | [d4D4][a4A4] [d4D4][d4D4] |]


